!!!COM:	Pierre de la Rue
**kern	**kern
*part2	*part1
*staff2	*staff1
*clefF4	*clefGv2
*k[]	*k[]
*M2/1	*M2/1
=1-	=1-
1r	0c
2.c	.
4B	.
=2	=2
2A	1c
4G	.
4F	.
1E	1e
=3	=3
0D	2.f
.	4e
.	2d
.	4c
.	4B
=4	=4
2r	1A
2D	.
2E	[1G
[2G	.
=5	=5
4G]	1G]
4A	.
4B	.
4c	.
2d	2r
2B	2G
=6	=6
4c	2A
4B	.
4A	2.c
4G	.
1A	.
.	4d
.	4e
.	4f
=7	=7
2G	2g
2.A	2e
.	4f
4G	4e
[2c	4d
.	4c
=8	=8
2c]	1d
2B	.
[1c	1c
=9	=9
1c]	2r
.	2e
2r	1e
2c	.
=10	=10
2d	1f
2B	.
2c	1e
4B	.
4A	.
=11	=11
2G	2r
2c	2e
2d	2f
2B	2d
=12	=12
2c	2e
4B	4d
4A	4c
4G	2B
4A	.
4B	2e
4c	.
=13	=13
2d	2f
2B	2d
2c	2e
[2A	4d
.	4c
=14	=14
2A]	4B
.	4A
2G	2B
2F	2.A
[2A	.
.	4B
=15	=15
2A]	4c
.	4d
4G	4e
4F	4f
4G	2e
4F	.
4E	[2d
4D	.
=16	=16
1E	2d]
.	2c
2r	[1d
2D	.
=17	=17
1G	1d]
2F	2r
[2E	[2g
=18	=18
4E]	2g]
4C	.
2D	2f
2E	2.e
[2F	.
.	4c
=19	=19
2F]	2d
2.E	2e
.	2c
4C	.
2D	[2f
=20	=20
1E	2f]
.	2.e
1F	.
.	4c
.	2d
=21	=21
1E	2e
.	1c
1A	.
.	[2f
=22	=22
2F	4f]
.	4e
2.B	2.d
4A	4c
4G	4B
4F	4A
=23	=23
4G	2G
4F	.
4E	1g
4D	.
2C	.
[2c	2e
=24	=24
2c]	2c
2A	2f
2F	2d
2G	[2e
=25	=25
1A	2e]
.	4d
.	4c
[1G	4B
.	4c
.	4d
.	4e
=26	=26
1G]	2d
.	2G
4E	2r
4F	.
4G	[2B
4A	.
=27	=27
2.G	4B]
.	4c
.	4d
4C	4e
1G	2d
.	2G
=28	=28
4E	4c
4F	4d
4G	4e
4A	4f
2G	2e
2C	4d
.	4c
=29	=29
4E	4B
4F	4A
4G	4B
4A	4c
2G	4d
.	4G
4F	[2c
4E	.
=30	=30
1D	2c]
.	2B
1C	1c
==	==
*-	*-
